X:308
T:March,A. RH.308
R:march
S:Rev.R.Harrison’s MS,c1815,Cumbria
O:England
A:Temple Sowerby,Cumbria
Z:vmp.Simon Wilson. Review PJH, 2008.
M:C|
L:1/8
Q:1/2=90
K:G
d>d|g4 d3B|G4 GGA>B|c4 B4|A2A>A A2d>d|!
g4 d2B2|a4 f2d2|g3(a/g/) fedc|d2d>d d2:|!
d>d|d4 f>fd>d|g4 b>bg>g|c’>c’b>b a>ag>g|f>fe>e d>dc>c|!
B4 dcBA|G2e2 d2c2|B4 dcBA|G2g>g g2||!
B2|”Trio”B3A G>GA>B|d3A F3F|G4 A2B2|cdde A4|!
B3A G>GAB|d2A2 F3F|G2A2 B3A|G2E>E E2|]

